resources/assets/icons/brands/coingecko.svg

<svg width="17" height="17" viewBox="0 0 17 17" fill="none" xmlns="http://www.w3.org/2000/svg">
<g clip-path="url(#clip0)">
<path d="M17.0004 8.46218C17.0078 10.1433 16.5166 11.7889 15.5888 13.1908C14.6609 14.5927 13.3383 15.688 11.7879 16.3382C10.2376 16.9884 8.52933 17.1643 6.87907 16.8436C5.22881 16.5229 3.71069 15.7201 2.51671 14.5366C1.32273 13.3531 0.506494 11.8422 0.171232 10.1948C-0.16403 8.54742 -0.00326432 6.83764 0.633199 5.28164C1.26966 3.72564 2.35324 2.39332 3.7469 1.45315C5.14056 0.512983 6.78172 0.00719517 8.46284 -0.000252279V-0.000252279C9.57907 -0.00519729 10.6854 0.209769 11.7185 0.632371C12.7517 1.05497 13.6915 1.67694 14.4843 2.46275C15.2771 3.24856 15.9073 4.18283 16.339 5.21221C16.7707 6.2416 16.9955 7.34594 17.0004 8.46218Z" fill="#7E8A9C"/>
<path d="M16.3626 8.46545C16.3702 10.0204 15.9166 11.5426 15.0591 12.8397C14.2015 14.1368 12.9785 15.1504 11.5449 15.7524C10.1112 16.3544 8.53117 16.5177 7.00468 16.2216C5.47819 15.9256 4.07378 15.1835 2.96907 14.0892C1.86436 12.9949 1.10899 11.5976 0.798478 10.074C0.487968 8.5504 0.636273 6.96892 1.22464 5.5296C1.813 4.09027 2.81499 2.85776 4.10388 1.98794C5.39278 1.11812 6.91067 0.650075 8.46559 0.64299V0.64299C10.5499 0.633819 12.5526 1.45265 14.0334 2.91949C15.5142 4.38633 16.352 6.38115 16.3626 8.46545V8.46545Z" fill="#3C4249"/>
<path d="M8.64478 1.14926C9.14451 1.06056 9.65596 1.06056 10.1557 1.14926C10.6602 1.22925 11.1479 1.39266 11.5988 1.63277C12.0472 1.87915 12.4347 2.21361 12.8203 2.52712C13.2058 2.84063 13.5896 3.16154 13.9548 3.51263C14.3277 3.85821 14.6531 4.25174 14.9225 4.68292C15.1998 5.11071 15.4271 5.56888 15.6 6.04846C15.9283 7.01303 16.0422 8.05212 15.8784 9.04317H15.8297C15.6653 8.06074 15.4423 7.12451 15.0906 6.23386C14.9255 5.78617 14.7313 5.34976 14.5092 4.92745C14.2775 4.50278 14.0221 4.0915 13.7442 3.69556C13.4616 3.29673 13.1153 2.94713 12.7192 2.66078C12.3201 2.37621 11.8612 2.19205 11.4171 2.01712C10.973 1.84219 10.5326 1.66295 10.0695 1.52991C9.60627 1.39687 9.13569 1.29708 8.64417 1.20038L8.64478 1.14926Z" fill="#C4C8CF"/>
<path d="M12.4876 5.69064C11.9173 5.52557 11.326 5.29151 10.7273 5.05499C10.6928 4.9047 10.5597 4.71745 10.2906 4.48894C9.89944 4.14955 9.16462 4.15818 8.52959 4.30847C7.82865 4.1434 7.13633 4.08488 6.47173 4.24687C1.03604 5.74423 4.11821 9.39738 2.12256 13.0696C2.40651 13.672 5.46712 17.1866 9.89575 16.2436C9.89575 16.2436 8.38115 12.604 11.799 10.8572C14.5714 9.43495 16.5744 6.80365 12.4876 5.69064Z" fill="#7E8A9C"/>
<path d="M13.1589 8.0811C13.1593 8.14628 13.1403 8.21009 13.1044 8.26449C13.0685 8.31888 13.0173 8.3614 12.9572 8.38668C12.8971 8.41196 12.8309 8.41885 12.7669 8.4065C12.7029 8.39414 12.644 8.36309 12.5977 8.31726C12.5514 8.27143 12.5196 8.2129 12.5066 8.14905C12.4935 8.0852 12.4997 8.0189 12.5243 7.95855C12.5489 7.8982 12.5908 7.8465 12.6448 7.80998C12.6988 7.77347 12.7624 7.75379 12.8276 7.75342C12.9149 7.75309 12.9988 7.78739 13.0609 7.84881C13.123 7.91023 13.1583 7.99376 13.1589 8.0811Z" fill="white"/>
<path d="M8.52954 4.30596C8.92559 4.33429 10.3577 4.79871 10.7272 5.05248C10.4193 4.15936 9.38262 4.04049 8.52954 4.30596Z" fill="#7E8A9C"/>
<path d="M8.90651 6.56463C8.90663 6.86529 8.81759 7.15923 8.65066 7.40929C8.48372 7.65934 8.24639 7.85428 7.96866 7.96945C7.69094 8.08462 7.3853 8.11484 7.0904 8.05631C6.79549 7.99777 6.52457 7.8531 6.31189 7.64059C6.09921 7.42808 5.95432 7.15728 5.89554 6.86242C5.83677 6.56756 5.86675 6.2619 5.98169 5.98409C6.09663 5.70627 6.29138 5.46877 6.5413 5.30164C6.79122 5.1345 7.08509 5.04523 7.38574 5.0451V5.0451C7.7887 5.0451 8.17517 5.20509 8.46021 5.48991C8.74526 5.77473 8.90556 6.16106 8.90589 6.56402L8.90651 6.56463Z" fill="white"/>
<path d="M8.45569 6.57825C8.45569 6.78973 8.39298 6.99646 8.27549 7.1723C8.15799 7.34815 7.99099 7.4852 7.79561 7.56613C7.60022 7.64706 7.38523 7.66823 7.17781 7.62698C6.97039 7.58572 6.77986 7.48388 6.63032 7.33434C6.48078 7.1848 6.37894 6.99427 6.33768 6.78685C6.29643 6.57943 6.3176 6.36444 6.39853 6.16905C6.47946 5.97367 6.61652 5.80667 6.79236 5.68918C6.9682 5.57168 7.17493 5.50897 7.38642 5.50897C7.67 5.50897 7.94198 5.62163 8.14251 5.82216C8.34304 6.02268 8.45569 6.29466 8.45569 6.57825Z" fill="#3C4249"/>
<path d="M14.3902 8.75127C13.1584 9.61914 11.7577 10.2776 9.77068 10.2776C8.8406 10.2776 8.65212 9.29207 8.03741 9.77374C7.7202 10.0238 6.60165 10.5831 5.71408 10.5406C4.82651 10.4981 3.38767 9.97823 2.98669 8.08298C2.82777 9.97823 2.74647 11.3733 2.03259 12.9729C3.44926 15.2415 6.82709 16.9913 9.89325 16.2374C9.56618 13.9369 11.5797 11.6838 12.7093 10.5326C13.1405 10.0959 13.9597 9.38323 14.3902 8.75189V8.75127Z" fill="#7E8A9C"/>
<path d="M14.3423 8.80788C13.9598 9.1565 13.5046 9.41458 13.0414 9.64248C12.5725 9.86487 12.0838 10.0428 11.5816 10.174C11.079 10.304 10.5549 10.4019 10.0239 10.3539C9.49298 10.3059 8.95034 10.1254 8.59863 9.72748L8.61526 9.70839C9.04642 9.98803 9.5441 10.0866 10.0393 10.1007C10.5413 10.1162 11.0434 10.0748 11.5361 9.97755C12.0337 9.87323 12.5206 9.7227 12.9903 9.52792C13.4603 9.3339 13.9253 9.10908 14.3257 8.78879L14.3423 8.80788Z" fill="#3C4249"/>
</g>
<defs>
<clipPath id="clip0">
<rect width="17" height="17" fill="white"/>
</clipPath>
</defs>
</svg>

<svg width="17" height="17" fill="none" xmlns="http://www.w3.org/2000/svg"><g clip-path="url(#clip0)"><path d="M17 8.462A8.5 8.5 0 118.463 0 8.5 8.5 0 0117 8.462z" fill="#7E8A9C"/><path d="M16.363 8.465A7.862 7.862 0 118.466.643a7.863 7.863 0 017.897 7.822z" fill="#3C4249"/><path d="M8.645 1.15a4.323 4.323 0 011.51 0c.505.08.993.243 1.444.483.448.246.836.58 1.221.894.386.314.77.635 1.135.986.373.345.698.739.967 1.17.278.428.505.886.678 1.365.328.965.442 2.004.278 2.995h-.048c-.165-.982-.388-1.918-.74-2.81-.165-.447-.359-.883-.58-1.306a12.894 12.894 0 00-.766-1.231A4.455 4.455 0 0012.72 2.66c-.399-.285-.858-.469-1.302-.644-.444-.175-.884-.354-1.348-.487a17.082 17.082 0 00-1.425-.33v-.05z" fill="#C4C8CF"/><path d="M12.488 5.69c-.57-.164-1.162-.398-1.76-.635-.035-.15-.168-.338-.437-.566-.392-.34-1.126-.33-1.761-.18-.701-.166-1.394-.224-2.058-.062-5.436 1.497-2.354 5.15-4.35 8.823.285.602 3.345 4.117 7.774 3.174 0 0-1.515-3.64 1.903-5.387 2.772-1.422 4.775-4.053.689-5.166z" fill="#7E8A9C"/><path d="M13.159 8.081a.33.33 0 11-.659.004.33.33 0 01.659-.004z" fill="#fff"/><path d="M8.53 4.306c.396.028 1.828.493 2.197.746-.308-.893-1.344-1.012-2.197-.746z" fill="#7E8A9C"/><path d="M8.907 6.565a1.52 1.52 0 11-1.521-1.52 1.52 1.52 0 011.52 1.519z" fill="#fff"/><path d="M8.456 6.578a1.07 1.07 0 11-2.139 0 1.07 1.07 0 012.139 0z" fill="#3C4249"/><path d="M14.39 8.751c-1.232.868-2.632 1.527-4.62 1.527-.93 0-1.118-.986-1.733-.504-.317.25-1.435.81-2.323.767-.887-.043-2.326-.563-2.727-2.458-.16 1.895-.24 3.29-.954 4.89 1.416 2.268 4.794 4.018 7.86 3.264-.327-2.3 1.687-4.553 2.816-5.704.431-.437 1.25-1.15 1.681-1.781z" fill="#7E8A9C"/><path d="M14.342 8.808c-.382.348-.837.607-1.3.834-.47.223-.958.4-1.46.532-.503.13-1.027.228-1.558.18-.531-.048-1.074-.229-1.425-.627l.016-.019c.431.28.93.379 1.424.393a6.667 6.667 0 001.497-.123 8.176 8.176 0 001.454-.45c.47-.194.935-.419 1.336-.74l.016.02z" fill="#3C4249"/></g><defs><clipPath id="clip0"><path fill="#fff" d="M0 0h17v17H0z"/></clipPath></defs></svg>
